icons/home.svg

<svg xmlns="http://www.w3.org/2000/svg" viewBox="0 0 16 16">
  <defs id="defs3051">
    <style type="text/css" id="current-color-scheme">
      .ColorScheme-Text {
        color:#eff0f1;
      }
      </style>
  </defs>
 <path style="fill:currentColor;fill-opacity:1;stroke:none" 
     d="M 8 2 L 7.2929688 2.6992188 L 7.296875 2.703125 L 2 7.9980469 L 2 8 L 2 9 L 3.0078125 9 L 3.0078125 13 L 3 13 L 3 14 L 13 14 L 13 13 L 13 9 L 14 9 L 14 8 L 14 7.9980469 L 12.857422 6.8554688 L 12.15625 7.5566406 L 12.599609 8 L 12 8 L 12 13 L 9 13 L 9 10 L 7 10 L 7 13 L 4 13 L 4 9 L 4 8 L 3.4003906 8 L 7.9980469 3.4042969 L 8 3.40625 L 8.0019531 3.4042969 L 9.4433594 4.84375 L 10.144531 4.1425781 L 8.703125 2.703125 L 8.7070312 2.6992188 L 8 2 z M 11 3 L 11 6 L 12.007812 6 L 12.007812 3 L 11 3 z "
     class="ColorScheme-Text"
     />
</svg>

<svg version="1.1" viewBox="0 0 16 16" xmlns="http://www.w3.org/2000/svg">
 <defs>
  <style id="current-color-scheme" type="text/css">.ColorScheme-Text {
        color:#eff0f1;
      }</style>
 </defs>
 <path class="ColorScheme-Text" d="m8 2-0.707 0.6992 0.003906 0.003906-5.297 5.295v0.001953 1h1.008v4h-0.007812v1h10v-1-4h1v-1-0.001953l-1.143-1.143-0.7012 0.7012 0.4434 0.4434h-0.5996v5h-3v-3h-2v3h-3v-4-1h-0.5996l4.598-4.596 0.001953 0.001953 0.001953-0.001953 1.441 1.439 0.7012-0.7012-1.441-1.439 0.003906-0.003906-0.707-0.6992zm3 1v3h1.008v-3h-1.008z" fill="#f0f0f0"/>
</svg>
